X:414
T:Leather Lake House
C:J. Bishop, 1788
S:Colin Hume's website,  colinhume.com  - chords can also be printed below the stave.
Q:1/2=120
M:2/2
L:1/4
K:A
P:A
|: "A"A2 c/B/A/B/ | "A"cA e2 | "Bm"dc BA | "E7"GA BE |\
"A"A2 c/B/A/B/ | "A"cA e2 | "D"dc "E7"B2 | "A"A2 A,2 :|
P:B
|: "A"a3/b/ ag | "F#m"f3/g/ fe | "Bm"dc BA | "E7"GA BE |\
"A"a3/b/ ag | "F#m"f3/g/ fe | "Bm"dc BA | "E7"eE "A"A2 :|

